X:2374
T:Arrane ny Sheeaghyn Troailtagh
C:Caesar Cashin, Peel.
C:Traditional
O:Isle of Man 
Z:Collected by Mona Douglas
N:From A Foster arrangement published by Stanier & Bell.
B:Kiaull Vannin #374 
L:1/4
M:3/4  
K:D 
A|AB c|de f|ga b|bef|AA B|BAG|A2 A|A3 |
AB c|BA A|ff g|fd B|A3 |AB c|BA A|BB B|cc z/||

